dist/img/stack/stack-9.svg

<svg width="110" height="110" viewBox="0 0 110 110" fill="none" xmlns="http://www.w3.org/2000/svg">
<g clip-path="url(#clip0_7007_905)">
<path d="M87.9938 40.2813C87.9938 39.6155 87.9813 38.9559 87.9627 38.2901C87.9253 36.8465 87.8382 35.3843 87.5831 33.9532C87.3218 32.5034 86.8987 31.1531 86.2266 29.834C85.5671 28.5398 84.7084 27.3513 83.6755 26.3246C82.6426 25.2979 81.4604 24.433 80.1661 23.7735C78.847 23.1015 77.4967 22.6784 76.0469 22.417C74.6158 22.1619 73.1598 22.0748 71.71 22.0375C71.0442 22.0188 70.3847 22.0126 69.7189 22.0063C68.9286 22.0063 68.1446 22.0063 67.3544 22.0063H42.6456C41.8554 22.0063 41.0714 22.0063 40.2811 22.0063C39.6153 22.0063 38.9496 22.0188 38.29 22.0375C37.9291 22.0499 37.5682 22.0623 37.2011 22.0748C36.1122 22.1246 35.0233 22.2241 33.953 22.417C32.8641 22.6099 31.8312 22.9024 30.8295 23.3193C30.4934 23.4561 30.1637 23.6117 29.8339 23.7797C28.8632 24.2775 27.9547 24.8811 27.1272 25.5904C26.8472 25.8268 26.5858 26.0757 26.3245 26.3309C25.2978 27.3575 24.4329 28.546 23.7734 29.8402C23.1013 31.1594 22.6782 32.5096 22.4169 33.9594C22.1618 35.3905 22.0747 36.8465 22.0373 38.2963C22.0187 38.9621 22.0124 39.6217 22.0062 40.2875C22 41.0715 22 41.8555 22 42.6457V67.3545C22 68.1447 22 68.9288 22 69.719C22 70.3848 22.0124 71.0443 22.0311 71.7101C22.0684 73.1537 22.1556 74.6159 22.4107 76.0471C22.672 77.4969 23.0951 78.8471 23.7671 80.1662C24.4267 81.4605 25.2854 82.6489 26.3183 83.6756C27.345 84.7023 28.5334 85.5672 29.8277 86.2268C31.1468 86.8988 32.497 87.3219 33.9468 87.5832C35.378 87.8383 36.834 87.9255 38.2838 87.9628C38.9496 87.9815 39.6091 87.9877 40.2749 87.9939C41.0651 87.9939 41.8492 87.9939 42.6394 87.9939H67.3482C68.1384 87.9939 68.9224 87.9939 69.7126 87.9939C70.3784 87.9939 71.038 87.9815 71.7038 87.9628C73.1474 87.9255 74.6096 87.8383 76.0407 87.5832C77.4905 87.3219 78.8408 86.8988 80.1599 86.2268C81.4541 85.5672 82.6426 84.7023 83.6693 83.6756C84.696 82.6489 85.5609 81.4605 86.2204 80.1662C86.8924 78.8471 87.3155 77.4969 87.5769 76.0471C87.832 74.6159 87.9191 73.1599 87.9564 71.7101C87.9751 71.0443 87.9813 70.3848 87.9876 69.719C87.9876 68.9288 87.9876 68.1447 87.9876 67.3545V42.6457C87.9876 41.8555 87.9876 41.0715 87.9876 40.2813H87.9938Z" fill="#B7B7BE"/>
<path d="M74.2923 62.7315C74.3669 62.4826 74.4416 62.2337 74.5038 61.9786C77.2416 51.0647 70.5589 38.1596 59.2467 31.3711C64.2059 38.0912 66.3962 46.23 64.4486 53.3483C64.2744 53.983 64.069 54.5927 63.8326 55.1839C63.5837 55.0221 63.2663 54.8354 62.8432 54.599C62.8432 54.599 51.5871 47.6486 39.3914 35.3596C39.074 35.036 45.8937 45.1099 53.6404 53.2923C49.9942 51.2451 39.8269 43.8468 33.3868 37.9543C34.1771 39.2734 35.1166 40.5428 36.1495 41.7686C41.5256 48.5882 48.5381 57.0008 56.932 63.4595C51.0333 67.0685 42.6954 67.3485 34.3886 63.4595C32.3353 62.4951 30.4063 61.3377 28.6205 60.0186C32.1361 65.6373 37.5496 70.4907 44.1328 73.3219C51.9853 76.7006 59.8005 76.4704 65.6184 73.3779C65.6184 73.3779 65.6619 73.3592 65.6806 73.3468C65.9419 73.2099 66.2033 73.0605 66.4522 72.9112C69.2646 71.4676 74.7465 70.0427 77.6959 75.7797C78.4239 77.1922 79.9608 69.7129 74.2923 62.7377V62.7315Z" fill="#F4F4F4"/>
</g>
<defs>
<clipPath id="clip0_7007_905">
<rect width="66" height="66" fill="white" transform="translate(22 22)"/>
</clipPath>
</defs>
</svg>

<svg width="110" height="110" viewBox="0 0 110 110" fill="none" xmlns="http://www.w3.org/2000/svg"><g clip-path="url(#clip0_7007_905)"><path d="M87.994 40.281c0-.666-.013-1.325-.031-1.99-.038-1.444-.125-2.907-.38-4.338-.261-1.45-.684-2.8-1.356-4.119a13.747 13.747 0 00-2.552-3.51 14.006 14.006 0 00-3.509-2.55c-1.319-.672-2.67-1.096-4.12-1.357-1.43-.255-2.886-.342-4.336-.38-.666-.018-1.325-.024-1.991-.03H40.28c-.666 0-1.331.012-1.991.03l-1.089.038c-1.089.05-2.178.15-3.248.342a14.762 14.762 0 00-3.124.902 13.888 13.888 0 00-4.505 3.012 13.895 13.895 0 00-2.55 3.51c-.673 1.318-1.096 2.669-1.357 4.118-.255 1.431-.342 2.887-.38 4.337-.018.666-.025 1.326-.03 1.992C22 41.072 22 41.855 22 42.645v27.073c0 .666.012 1.325.031 1.991.037 1.444.125 2.906.38 4.337.261 1.45.684 2.8 1.356 4.12a13.898 13.898 0 006.06 6.06c1.32.672 2.67 1.095 4.12 1.356 1.431.255 2.887.343 4.337.38.666.019 1.325.025 1.99.03h29.44c.665 0 1.325-.011 1.99-.03 1.444-.037 2.907-.125 4.338-.38 1.45-.261 2.8-.684 4.119-1.356a13.9 13.9 0 006.06-6.06c.672-1.32 1.096-2.67 1.357-4.12.255-1.431.342-2.887.38-4.337.018-.666.024-1.325.03-1.991V40.281h.007z" fill="#B7B7BE"/><path d="M74.292 62.731c.075-.248.15-.497.212-.752 2.738-10.914-3.945-23.82-15.257-30.608 4.959 6.72 7.15 14.859 5.202 21.977-.175.635-.38 1.245-.616 1.836a17.757 17.757 0 00-.99-.585s-11.256-6.95-23.452-19.24c-.317-.323 6.503 9.75 14.25 17.933-3.647-2.047-13.814-9.445-20.254-15.338.79 1.32 1.73 2.589 2.763 3.815 5.376 6.82 12.388 15.232 20.782 21.69-5.899 3.61-14.237 3.89-22.543 0a34.128 34.128 0 01-5.769-3.44c3.516 5.618 8.93 10.472 15.513 13.303 7.852 3.379 15.667 3.148 21.485.056 0 0 .044-.019.063-.031.26-.137.522-.286.771-.436 2.813-1.443 8.294-2.868 11.244 2.869.728 1.412 2.265-6.067-3.404-13.042v-.007z" fill="#F4F4F4"/></g><defs><clipPath id="clip0_7007_905"><path fill="#fff" transform="translate(22 22)" d="M0 0h66v66H0z"/></clipPath></defs></svg>
